markup/sourceimages/decore-line8.svg

<svg xmlns="http://www.w3.org/2000/svg" width="6093" height="41"><path fill-rule="evenodd" fill="#E7FAF3" d="M6059.065 40.991c-25.526 0-45.443-8.185-64.706-16.1-19.18-7.881-37.297-15.326-60.776-15.326-23.478 0-41.595 7.444-60.776 15.326-19.261 7.915-39.179 16.1-64.705 16.1-25.525 0-45.443-8.185-64.705-16.1-19.181-7.882-37.298-15.326-60.775-15.326-23.479 0-41.596 7.445-60.777 15.326-19.262 7.915-39.18 16.1-64.704 16.1-25.526 0-45.444-8.185-64.706-16.1-19.181-7.882-37.298-15.326-60.776-15.326s-41.595 7.445-60.776 15.326c-9.856 4.05-19.884 8.17-30.747 11.229l.004.011c-11.619 3.27-22.72 4.86-33.936 4.86l-.013-.001-.013.001c-11.217 0-22.317-1.59-33.937-4.86l.004-.011c-10.862-3.059-20.89-7.179-30.746-11.229-19.181-7.881-37.297-15.326-60.776-15.326-23.478 0-41.595 7.444-60.776 15.326-19.261 7.915-39.179 16.1-64.705 16.1-25.526 0-45.443-8.185-64.705-16.1-19.181-7.882-37.298-15.326-60.775-15.326-23.479 0-41.596 7.445-60.777 15.326-19.262 7.915-39.18 16.1-64.705 16.1s-45.444-8.185-64.705-16.1c-19.181-7.882-37.299-15.326-60.776-15.326-23.478 0-41.595 7.445-60.776 15.326-19.263 7.915-39.181 16.1-64.705 16.1-.329 0-.657-.002-.986-.005-.328.003-.656.005-.985.005-25.525 0-45.443-8.185-64.705-16.1-19.181-7.881-37.298-15.326-60.776-15.326s-41.596 7.444-60.776 15.326c-19.261 7.915-39.179 16.1-64.706 16.1-25.525 0-45.442-8.185-64.705-16.1-19.18-7.882-37.297-15.326-60.775-15.326s-41.595 7.445-60.776 15.326c-19.262 7.915-39.18 16.1-64.705 16.1s-45.444-8.185-64.705-16.1c-19.182-7.882-37.299-15.326-60.776-15.326-23.478 0-41.595 7.445-60.776 15.326-9.856 4.05-19.884 8.17-30.747 11.229l.003.011c-11.619 3.27-22.72 4.86-33.935 4.86l-.013-.001-.013.001c-11.217 0-22.318-1.59-33.937-4.86l.004-.011c-10.863-3.059-20.89-7.179-30.746-11.229-19.181-7.881-37.298-15.326-60.776-15.326-23.479 0-41.596 7.444-60.776 15.326-19.262 7.915-39.179 16.1-64.705 16.1-25.526 0-45.443-8.185-64.706-16.1-19.18-7.882-37.298-15.326-60.775-15.326-23.478 0-41.595 7.445-60.777 15.326-19.261 7.915-39.18 16.1-64.704 16.1-25.526 0-45.444-8.185-64.705-16.1-19.182-7.882-37.299-15.326-60.776-15.326-23.479 0-41.596 7.445-60.777 15.326-9.361 3.847-18.877 7.757-29.116 10.76l.146.48c-11.619 3.27-22.72 4.86-33.935 4.86-.301 0-.601-.002-.9-.004-.299.002-.599.004-.9.004-11.216 0-22.317-1.59-33.936-4.86l.146-.48c-10.239-3.003-19.754-6.913-29.115-10.76-19.181-7.881-37.298-15.326-60.776-15.326-23.479 0-41.596 7.444-60.776 15.326-19.262 7.915-39.179 16.1-64.705 16.1-25.526 0-45.443-8.185-64.706-16.1-19.18-7.882-37.298-15.326-60.775-15.326-23.478 0-41.595 7.445-60.777 15.326-19.261 7.915-39.18 16.1-64.704 16.1-25.526 0-45.444-8.185-64.705-16.1-19.182-7.882-37.299-15.326-60.777-15.326s-41.595 7.445-60.776 15.326c-9.856 4.05-19.884 8.17-30.746 11.229l.003.011c-11.619 3.27-22.719 4.86-33.936 4.86l-.013-.001-.013.001c-11.216 0-22.317-1.59-33.936-4.86l.003-.011c-10.862-3.059-20.89-7.179-30.746-11.229-19.18-7.881-37.297-15.326-60.776-15.326-23.478 0-41.595 7.444-60.776 15.326-19.261 7.915-39.179 16.1-64.705 16.1-25.525 0-45.443-8.185-64.705-16.1-19.181-7.882-37.298-15.326-60.775-15.326-23.479 0-41.595 7.445-60.777 15.326-19.262 7.915-39.18 16.1-64.704 16.1-25.526 0-45.444-8.185-64.706-16.1-19.181-7.882-37.299-15.326-60.776-15.326-23.478 0-41.595 7.445-60.776 15.326-19.262 7.915-39.18 16.1-64.705 16.1-.329 0-.657-.002-.985-.005-.329.003-.657.005-.986.005-25.525 0-45.442-8.185-64.705-16.1-19.18-7.881-37.297-15.326-60.776-15.326-23.478 0-41.595 7.444-60.776 15.326-19.261 7.915-39.179 16.1-64.705 16.1-25.526 0-45.443-8.185-64.705-16.1-19.181-7.882-37.298-15.326-60.775-15.326-23.479 0-41.596 7.445-60.777 15.326-19.262 7.915-39.18 16.1-64.705 16.1s-45.444-8.185-64.705-16.1c-19.182-7.882-37.299-15.326-60.776-15.326-23.478 0-41.595 7.445-60.776 15.326-9.856 4.05-19.884 8.17-30.747 11.229l.003.011c-11.619 3.27-22.719 4.86-33.935 4.86l-.013-.001-.013.001c-11.217 0-22.318-1.59-33.937-4.86l.004-.011c-10.863-3.059-20.89-7.179-30.746-11.229-19.181-7.881-37.298-15.326-60.776-15.326-23.479 0-41.596 7.444-60.776 15.326-19.262 7.915-39.179 16.1-64.705 16.1-25.526 0-45.443-8.185-64.706-16.1-19.18-7.882-37.297-15.326-60.775-15.326s-41.595 7.445-60.777 15.326c-19.261 7.915-39.18 16.1-64.704 16.1-25.525 0-45.444-8.185-64.705-16.1-19.182-7.882-37.299-15.326-60.776-15.326-23.478 0-41.596 7.445-60.776 15.326-19.262 7.915-39.181 16.1-64.705 16.1-11.217 0-22.318-1.59-33.937-4.86l2.81-9.192c10.692 3.008 20.874 4.471 31.127 4.471 23.478 0 41.595-7.445 60.776-15.326 19.262-7.915 39.18-16.1 64.705-16.1 25.524 0 45.443 8.185 64.704 16.1 19.182 7.881 37.299 15.326 60.777 15.326 23.477 0 41.595-7.444 60.776-15.326 19.262-7.915 39.18-16.1 64.705-16.1s45.442 8.185 64.705 16.1c19.18 7.881 37.297 15.326 60.776 15.326 23.479 0 41.596-7.445 60.776-15.326 19.262-7.915 39.179-16.1 64.705-16.1 25.525 0 45.442 8.185 64.705 16.1 9.864 4.053 19.446 7.991 29.621 10.86l.002-.005c9.834 2.766 19.235 4.226 28.657 4.443l.142.003a1471.084 1471.084 0 0 0 .776.014l.408.005.097.001a93.307 93.307 0 0 0 2.12 0l.098-.001.406-.005.192-.003.286-.005.301-.006.137-.003c9.422-.217 18.824-1.677 28.662-4.443l.001.004c10.174-2.869 19.757-6.806 29.62-10.859 19.262-7.915 39.181-16.1 64.705-16.1s45.443 8.185 64.704 16.1c19.182 7.881 37.299 15.326 60.777 15.326s41.595-7.444 60.776-15.326c19.262-7.915 39.18-16.1 64.706-16.1 25.524 0 45.442 8.185 64.704 16.1 19.18 7.881 37.298 15.326 60.776 15.326 23.479 0 41.596-7.445 60.777-15.326 19.261-7.915 39.179-16.1 64.704-16.1 25.525 0 45.443 8.185 64.705 16.1 10.457 4.297 20.598 8.464 31.464 11.365l.156-.51c10.35 2.911 20.221 4.376 30.142 4.467 9.919-.091 19.79-1.556 30.142-4.467l.156.51c10.866-2.901 21.006-7.068 31.463-11.365 19.263-7.915 39.181-16.1 64.705-16.1 25.525 0 45.443 8.185 64.704 16.1 19.182 7.881 37.299 15.326 60.778 15.326 23.477 0 41.594-7.444 60.775-15.326 19.262-7.915 39.181-16.1 64.706-16.1 25.524 0 45.442 8.185 64.704 16.1 19.181 7.881 37.298 15.326 60.776 15.326 23.479 0 41.597-7.445 60.777-15.326 19.262-7.915 39.179-16.1 64.704-16.1 25.526 0 45.443 8.185 64.705 16.1 9.864 4.053 19.447 7.991 29.622 10.86l.001-.005c9.834 2.766 19.235 4.226 28.657 4.443a318.347 318.347 0 0 1 .729.014l.19.003.408.005.096.001a93.417 93.417 0 0 0 2.12 0l.098-.001.406-.005.192-.003.286-.005.302-.006.136-.003c9.423-.217 18.825-1.677 28.662-4.443l.002.004c10.174-2.869 19.756-6.806 29.619-10.859 19.263-7.915 39.181-16.1 64.705-16.1 25.525 0 45.443 8.185 64.705 16.1 19.181 7.881 37.299 15.326 60.777 15.326 23.477 0 41.594-7.444 60.776-15.326 19.261-7.915 39.18-16.1 64.705-16.1 25.524 0 45.442 8.185 64.704 16.1 19.181 7.881 37.298 15.326 60.777 15.326s41.596-7.445 60.776-15.326c19.262-7.915 39.179-16.1 64.705-16.1 25.525 0 45.442 8.185 64.705 16.1 18.935 7.78 36.833 15.135 59.876 15.322 23.043-.187 40.942-7.542 59.876-15.322 19.263-7.915 39.181-16.1 64.706-16.1 25.524 0 45.442 8.185 64.704 16.1 19.181 7.881 37.299 15.326 60.777 15.326 23.477 0 41.594-7.444 60.776-15.326 19.261-7.915 39.18-16.1 64.705-16.1 25.524 0 45.442 8.185 64.704 16.1 19.181 7.881 37.298 15.326 60.777 15.326s41.596-7.445 60.776-15.326c19.262-7.915 39.179-16.1 64.705-16.1 25.525 0 45.442 8.185 64.705 16.1 9.863 4.053 19.446 7.991 29.621 10.86l.001-.005c9.835 2.766 19.236 4.226 28.658 4.443l.142.003.297.006.29.005.189.003.408.005.097.001a93.307 93.307 0 0 0 2.119 0l.099-.001.406-.005.191-.003.287-.005.301-.006.137-.003c9.422-.217 18.824-1.677 28.661-4.443l.001.004c10.175-2.869 19.757-6.806 29.621-10.859 19.262-7.915 39.181-16.1 64.705-16.1s45.443 8.185 64.704 16.1c19.182 7.881 37.299 15.326 60.777 15.326 23.477 0 41.594-7.444 60.776-15.326 19.261-7.915 39.18-16.1 64.705-16.1s45.442 8.185 64.705 16.1c19.18 7.881 37.297 15.326 60.775 15.326 23.48 0 41.597-7.445 60.778-15.326 19.261-7.915 39.179-16.1 64.704-16.1 25.525 0 45.443 8.185 64.705 16.1 10.457 4.297 20.598 8.464 31.464 11.365l.156-.51c10.35 2.911 20.221 4.376 30.141 4.467 9.92-.091 19.791-1.556 30.143-4.467l.156.51c10.866-2.901 21.006-7.068 31.463-11.365 19.262-7.915 39.181-16.1 64.705-16.1s45.443 8.185 64.704 16.1c19.182 7.881 37.299 15.326 60.777 15.326s41.595-7.444 60.776-15.326c19.262-7.915 39.18-16.1 64.706-16.1 25.524 0 45.442 8.185 64.704 16.1 19.18 7.881 37.297 15.326 60.776 15.326 23.479 0 41.596-7.445 60.777-15.326 19.261-7.915 39.179-16.1 64.704-16.1 25.525 0 45.443 8.185 64.705 16.1 9.864 4.053 19.447 7.991 29.622 10.86l.001-.005c9.834 2.766 19.235 4.226 28.657 4.443l.142.003.298.006.289.005.189.003.409.005.096.001a93.417 93.417 0 0 0 2.12 0l.098-.001.406-.005.192-.003.286-.005.302-.006.136-.003c9.422-.217 18.825-1.677 28.662-4.443l.001.004c10.175-2.869 19.757-6.806 29.62-10.859 19.262-7.915 39.181-16.1 64.705-16.1 25.525 0 45.443 8.185 64.705 16.1 19.181 7.881 37.298 15.326 60.777 15.326 23.477 0 41.594-7.444 60.775-15.326 19.262-7.915 39.181-16.1 64.706-16.1 25.524 0 45.442 8.185 64.704 16.1 19.181 7.881 37.298 15.326 60.776 15.326 23.479 0 41.596-7.445 60.777-15.326 19.261-7.915 39.179-16.1 64.704-16.1 25.526 0 45.443 8.185 64.705 16.1 19.181 7.881 37.298 15.326 60.777 15.326 10.251 0 20.433-1.463 31.128-4.471l2.807 9.192c-11.619 3.27-22.72 4.86-33.935 4.86z"/></svg>

<svg 
 xmlns="http://www.w3.org/2000/svg"
 xmlns:xlink="http://www.w3.org/1999/xlink"
 width="6093px" height="41px">
<path fill-rule="evenodd"  fill="rgb(231, 250, 243)"
 d="M6059.065,40.991 C6033.539,40.991 6013.622,32.806 5994.359,24.891 C5975.179,17.010 5957.062,9.565 5933.583,9.565 C5910.105,9.565 5891.988,17.009 5872.807,24.891 C5853.546,32.806 5833.628,40.991 5808.102,40.991 C5782.577,40.991 5762.659,32.806 5743.397,24.891 C5724.216,17.009 5706.099,9.565 5682.622,9.565 C5659.143,9.565 5641.026,17.010 5621.845,24.891 C5602.583,32.806 5582.665,40.991 5557.141,40.991 C5531.615,40.991 5511.697,32.806 5492.435,24.891 C5473.254,17.009 5455.137,9.565 5431.659,9.565 C5408.181,9.565 5390.064,17.010 5370.883,24.891 C5361.027,28.941 5350.999,33.061 5340.136,36.120 L5340.140,36.131 C5328.521,39.401 5317.420,40.991 5306.204,40.991 C5306.200,40.991 5306.196,40.990 5306.191,40.990 C5306.187,40.990 5306.183,40.991 5306.178,40.991 C5294.961,40.991 5283.861,39.401 5272.241,36.131 L5272.245,36.120 C5261.383,33.061 5251.355,28.941 5241.499,24.891 C5222.318,17.010 5204.202,9.565 5180.723,9.565 C5157.245,9.565 5139.128,17.009 5119.947,24.891 C5100.686,32.806 5080.768,40.991 5055.242,40.991 C5029.716,40.991 5009.799,32.806 4990.537,24.891 C4971.356,17.009 4953.239,9.565 4929.762,9.565 C4906.283,9.565 4888.166,17.010 4868.985,24.891 C4849.723,32.806 4829.805,40.991 4804.280,40.991 C4778.755,40.991 4758.836,32.806 4739.575,24.891 C4720.394,17.009 4702.276,9.565 4678.799,9.565 C4655.321,9.565 4637.204,17.010 4618.023,24.891 C4598.760,32.806 4578.842,40.991 4553.318,40.991 C4552.989,40.991 4552.661,40.989 4552.332,40.986 C4552.004,40.989 4551.676,40.991 4551.347,40.991 C4525.822,40.991 4505.904,32.806 4486.642,24.891 C4467.461,17.010 4449.344,9.565 4425.866,9.565 C4402.388,9.565 4384.270,17.009 4365.090,24.891 C4345.829,32.806 4325.911,40.991 4300.384,40.991 C4274.859,40.991 4254.942,32.806 4235.679,24.891 C4216.499,17.009 4198.382,9.565 4174.904,9.565 C4151.426,9.565 4133.309,17.010 4114.128,24.891 C4094.866,32.806 4074.948,40.991 4049.423,40.991 C4023.898,40.991 4003.979,32.806 3984.718,24.891 C3965.536,17.009 3947.419,9.565 3923.942,9.565 C3900.464,9.565 3882.347,17.010 3863.166,24.891 C3853.310,28.941 3843.282,33.061 3832.419,36.120 L3832.422,36.131 C3820.803,39.401 3809.702,40.991 3798.487,40.991 C3798.482,40.991 3798.478,40.990 3798.474,40.990 C3798.469,40.990 3798.465,40.991 3798.461,40.991 C3787.244,40.991 3776.143,39.401 3764.524,36.131 L3764.528,36.120 C3753.665,33.061 3743.638,28.941 3733.782,24.891 C3714.601,17.010 3696.484,9.565 3673.006,9.565 C3649.527,9.565 3631.410,17.009 3612.230,24.891 C3592.968,32.806 3573.051,40.991 3547.525,40.991 C3521.999,40.991 3502.082,32.806 3482.819,24.891 C3463.639,17.009 3445.521,9.565 3422.044,9.565 C3398.566,9.565 3380.449,17.010 3361.267,24.891 C3342.006,32.806 3322.087,40.991 3296.563,40.991 C3271.037,40.991 3251.119,32.806 3231.858,24.891 C3212.676,17.009 3194.559,9.565 3171.082,9.565 C3147.603,9.565 3129.486,17.010 3110.305,24.891 C3100.944,28.738 3091.428,32.648 3081.189,35.651 L3081.335,36.131 C3069.716,39.401 3058.615,40.991 3047.400,40.991 C3047.099,40.991 3046.799,40.989 3046.500,40.987 C3046.201,40.989 3045.901,40.991 3045.600,40.991 C3034.384,40.991 3023.283,39.401 3011.664,36.131 L3011.810,35.651 C3001.571,32.648 2992.056,28.738 2982.695,24.891 C2963.514,17.010 2945.397,9.565 2921.919,9.565 C2898.440,9.565 2880.323,17.009 2861.143,24.891 C2841.881,32.806 2821.964,40.991 2796.438,40.991 C2770.912,40.991 2750.995,32.806 2731.732,24.891 C2712.552,17.009 2694.434,9.565 2670.957,9.565 C2647.479,9.565 2629.362,17.010 2610.180,24.891 C2590.919,32.806 2571.000,40.991 2545.476,40.991 C2519.950,40.991 2500.032,32.806 2480.771,24.891 C2461.589,17.009 2443.472,9.565 2419.994,9.565 C2396.516,9.565 2378.399,17.010 2359.218,24.891 C2349.362,28.941 2339.334,33.061 2328.472,36.120 L2328.475,36.131 C2316.856,39.401 2305.756,40.991 2294.539,40.991 C2294.535,40.991 2294.531,40.990 2294.526,40.990 C2294.522,40.990 2294.518,40.991 2294.513,40.991 C2283.297,40.991 2272.196,39.401 2260.577,36.131 L2260.580,36.120 C2249.718,33.061 2239.690,28.941 2229.834,24.891 C2210.654,17.010 2192.537,9.565 2169.058,9.565 C2145.580,9.565 2127.463,17.009 2108.282,24.891 C2089.021,32.806 2069.103,40.991 2043.577,40.991 C2018.052,40.991 1998.134,32.806 1978.872,24.891 C1959.691,17.009 1941.574,9.565 1918.097,9.565 C1894.618,9.565 1876.502,17.010 1857.320,24.891 C1838.058,32.806 1818.140,40.991 1792.616,40.991 C1767.090,40.991 1747.172,32.806 1727.910,24.891 C1708.729,17.009 1690.611,9.565 1667.134,9.565 C1643.656,9.565 1625.539,17.010 1606.358,24.891 C1587.096,32.806 1567.178,40.991 1541.653,40.991 C1541.324,40.991 1540.996,40.989 1540.668,40.986 C1540.339,40.989 1540.011,40.991 1539.682,40.991 C1514.157,40.991 1494.240,32.806 1474.977,24.891 C1455.797,17.010 1437.680,9.565 1414.201,9.565 C1390.723,9.565 1372.606,17.009 1353.425,24.891 C1334.164,32.806 1314.246,40.991 1288.720,40.991 C1263.194,40.991 1243.277,32.806 1224.015,24.891 C1204.834,17.009 1186.717,9.565 1163.240,9.565 C1139.761,9.565 1121.644,17.010 1102.463,24.891 C1083.201,32.806 1063.283,40.991 1037.758,40.991 C1012.233,40.991 992.314,32.806 973.053,24.891 C953.871,17.009 935.754,9.565 912.277,9.565 C888.799,9.565 870.682,17.010 851.501,24.891 C841.645,28.941 831.617,33.061 820.754,36.120 L820.757,36.131 C809.138,39.401 798.038,40.991 786.822,40.991 C786.818,40.991 786.813,40.990 786.809,40.990 C786.805,40.990 786.800,40.991 786.796,40.991 C775.579,40.991 764.478,39.401 752.859,36.131 L752.863,36.120 C742.000,33.061 731.973,28.941 722.117,24.891 C702.936,17.010 684.819,9.565 661.341,9.565 C637.862,9.565 619.745,17.009 600.565,24.891 C581.303,32.806 561.386,40.991 535.860,40.991 C510.334,40.991 490.417,32.806 471.154,24.891 C451.974,17.009 433.857,9.565 410.379,9.565 C386.901,9.565 368.784,17.010 349.602,24.891 C330.341,32.806 310.422,40.991 284.898,40.991 C259.373,40.991 239.454,32.806 220.193,24.891 C201.011,17.009 182.894,9.565 159.417,9.565 C135.939,9.565 117.821,17.010 98.641,24.891 C79.379,32.806 59.460,40.991 33.936,40.991 C22.719,40.991 11.618,39.401 -0.001,36.131 L2.809,26.939 C13.501,29.947 23.683,31.410 33.936,31.410 C57.414,31.410 75.531,23.965 94.712,16.084 C113.974,8.169 133.892,-0.016 159.417,-0.016 C184.941,-0.016 204.860,8.169 224.121,16.084 C243.303,23.965 261.420,31.410 284.898,31.410 C308.375,31.410 326.493,23.966 345.674,16.084 C364.936,8.169 384.854,-0.016 410.379,-0.016 C435.904,-0.016 455.821,8.169 475.084,16.084 C494.264,23.965 512.381,31.410 535.860,31.410 C559.339,31.410 577.456,23.965 596.636,16.084 C615.898,8.169 635.815,-0.016 661.341,-0.016 C686.866,-0.016 706.783,8.169 726.046,16.084 C735.910,20.137 745.492,24.075 755.667,26.944 L755.669,26.939 C765.503,29.705 774.904,31.165 784.326,31.382 C784.373,31.383 784.421,31.384 784.468,31.385 C784.567,31.387 784.666,31.389 784.766,31.391 C784.862,31.393 784.958,31.395 785.055,31.396 C785.118,31.397 785.181,31.398 785.244,31.399 C785.380,31.401 785.516,31.403 785.652,31.404 C785.685,31.404 785.717,31.405 785.749,31.405 C786.101,31.409 786.454,31.410 786.809,31.410 C787.163,31.410 787.517,31.409 787.869,31.405 C787.901,31.405 787.934,31.404 787.967,31.404 C788.102,31.403 788.238,31.401 788.373,31.399 C788.437,31.398 788.501,31.397 788.565,31.396 C788.660,31.394 788.755,31.393 788.851,31.391 C788.951,31.389 789.052,31.387 789.152,31.385 C789.198,31.384 789.243,31.383 789.289,31.382 C798.711,31.165 808.113,29.705 817.951,26.939 L817.952,26.943 C828.126,24.074 837.709,20.137 847.572,16.084 C866.834,8.169 886.753,-0.016 912.277,-0.016 C937.801,-0.016 957.720,8.169 976.981,16.084 C996.163,23.965 1014.280,31.410 1037.758,31.410 C1061.236,31.410 1079.353,23.966 1098.534,16.084 C1117.796,8.169 1137.714,-0.016 1163.240,-0.016 C1188.764,-0.016 1208.682,8.169 1227.944,16.084 C1247.124,23.965 1265.242,31.410 1288.720,31.410 C1312.199,31.410 1330.316,23.965 1349.497,16.084 C1368.758,8.169 1388.676,-0.016 1414.201,-0.016 C1439.726,-0.016 1459.644,8.169 1478.906,16.084 C1489.363,20.381 1499.504,24.548 1510.370,27.449 L1510.526,26.939 C1520.876,29.850 1530.747,31.315 1540.668,31.406 C1550.587,31.315 1560.458,29.850 1570.810,26.939 L1570.966,27.449 C1581.832,24.548 1591.972,20.381 1602.429,16.084 C1621.692,8.169 1641.610,-0.016 1667.134,-0.016 C1692.659,-0.016 1712.577,8.169 1731.838,16.084 C1751.020,23.965 1769.137,31.410 1792.616,31.410 C1816.093,31.410 1834.210,23.966 1853.391,16.084 C1872.653,8.169 1892.572,-0.016 1918.097,-0.016 C1943.621,-0.016 1963.539,8.169 1982.801,16.084 C2001.982,23.965 2020.099,31.410 2043.577,31.410 C2067.056,31.410 2085.174,23.965 2104.354,16.084 C2123.616,8.169 2143.533,-0.016 2169.058,-0.016 C2194.584,-0.016 2214.501,8.169 2233.763,16.084 C2243.627,20.137 2253.210,24.075 2263.385,26.944 L2263.386,26.939 C2273.220,29.705 2282.621,31.165 2292.043,31.382 C2292.091,31.383 2292.138,31.384 2292.185,31.385 C2292.285,31.387 2292.384,31.389 2292.483,31.391 C2292.579,31.393 2292.676,31.395 2292.772,31.396 C2292.835,31.397 2292.899,31.398 2292.962,31.399 C2293.098,31.401 2293.234,31.403 2293.370,31.404 C2293.402,31.404 2293.434,31.405 2293.466,31.405 C2293.818,31.409 2294.172,31.410 2294.526,31.410 C2294.881,31.410 2295.234,31.409 2295.586,31.405 C2295.619,31.405 2295.651,31.404 2295.684,31.404 C2295.820,31.403 2295.955,31.401 2296.090,31.399 C2296.154,31.398 2296.218,31.397 2296.282,31.396 C2296.378,31.394 2296.473,31.393 2296.568,31.391 C2296.669,31.389 2296.769,31.387 2296.870,31.385 C2296.915,31.384 2296.961,31.383 2297.006,31.382 C2306.429,31.165 2315.831,29.705 2325.668,26.939 L2325.670,26.943 C2335.844,24.074 2345.426,20.137 2355.289,16.084 C2374.552,8.169 2394.470,-0.016 2419.994,-0.016 C2445.519,-0.016 2465.437,8.169 2484.699,16.084 C2503.880,23.965 2521.998,31.410 2545.476,31.410 C2568.953,31.410 2587.070,23.966 2606.252,16.084 C2625.513,8.169 2645.432,-0.016 2670.957,-0.016 C2696.481,-0.016 2716.399,8.169 2735.661,16.084 C2754.842,23.965 2772.959,31.410 2796.438,31.410 C2819.917,31.410 2838.034,23.965 2857.214,16.084 C2876.476,8.169 2896.393,-0.016 2921.919,-0.016 C2947.444,-0.016 2967.361,8.169 2986.624,16.084 C3005.559,23.864 3023.457,31.219 3046.500,31.406 C3069.543,31.219 3087.442,23.864 3106.376,16.084 C3125.639,8.169 3145.557,-0.016 3171.082,-0.016 C3196.606,-0.016 3216.524,8.169 3235.786,16.084 C3254.967,23.965 3273.085,31.410 3296.563,31.410 C3320.040,31.410 3338.157,23.966 3357.339,16.084 C3376.600,8.169 3396.519,-0.016 3422.044,-0.016 C3447.568,-0.016 3467.486,8.169 3486.748,16.084 C3505.929,23.965 3524.046,31.410 3547.525,31.410 C3571.004,31.410 3589.121,23.965 3608.301,16.084 C3627.563,8.169 3647.480,-0.016 3673.006,-0.016 C3698.531,-0.016 3718.448,8.169 3737.711,16.084 C3747.574,20.137 3757.157,24.075 3767.332,26.944 L3767.333,26.939 C3777.168,29.705 3786.569,31.165 3795.991,31.382 C3796.038,31.383 3796.085,31.384 3796.133,31.385 C3796.232,31.387 3796.331,31.389 3796.430,31.391 C3796.527,31.393 3796.623,31.395 3796.720,31.396 C3796.783,31.397 3796.846,31.398 3796.909,31.399 C3797.045,31.401 3797.181,31.403 3797.317,31.404 C3797.349,31.404 3797.382,31.405 3797.414,31.405 C3797.766,31.409 3798.119,31.410 3798.474,31.410 C3798.828,31.410 3799.181,31.409 3799.533,31.405 C3799.566,31.405 3799.599,31.404 3799.632,31.404 C3799.767,31.403 3799.902,31.401 3800.038,31.399 C3800.102,31.398 3800.166,31.397 3800.229,31.396 C3800.325,31.394 3800.420,31.393 3800.516,31.391 C3800.616,31.389 3800.717,31.387 3800.817,31.385 C3800.863,31.384 3800.908,31.383 3800.954,31.382 C3810.376,31.165 3819.778,29.705 3829.615,26.939 L3829.616,26.943 C3839.791,24.074 3849.373,20.137 3859.237,16.084 C3878.499,8.169 3898.418,-0.016 3923.942,-0.016 C3949.466,-0.016 3969.385,8.169 3988.646,16.084 C4007.828,23.965 4025.945,31.410 4049.423,31.410 C4072.900,31.410 4091.017,23.966 4110.199,16.084 C4129.460,8.169 4149.379,-0.016 4174.904,-0.016 C4200.429,-0.016 4220.346,8.169 4239.609,16.084 C4258.789,23.965 4276.906,31.410 4300.384,31.410 C4323.864,31.410 4341.981,23.965 4361.162,16.084 C4380.423,8.169 4400.341,-0.016 4425.866,-0.016 C4451.391,-0.016 4471.309,8.169 4490.571,16.084 C4501.028,20.381 4511.169,24.548 4522.035,27.449 L4522.191,26.939 C4532.541,29.850 4542.412,31.315 4552.332,31.406 C4562.252,31.315 4572.123,29.850 4582.475,26.939 L4582.631,27.449 C4593.497,24.548 4603.637,20.381 4614.094,16.084 C4633.356,8.169 4653.275,-0.016 4678.799,-0.016 C4704.323,-0.016 4724.242,8.169 4743.503,16.084 C4762.685,23.965 4780.802,31.410 4804.280,31.410 C4827.758,31.410 4845.875,23.966 4865.056,16.084 C4884.318,8.169 4904.236,-0.016 4929.762,-0.016 C4955.286,-0.016 4975.204,8.169 4994.466,16.084 C5013.646,23.965 5031.763,31.410 5055.242,31.410 C5078.721,31.410 5096.838,23.965 5116.019,16.084 C5135.280,8.169 5155.198,-0.016 5180.723,-0.016 C5206.248,-0.016 5226.166,8.169 5245.428,16.084 C5255.292,20.137 5264.875,24.075 5275.050,26.944 L5275.051,26.939 C5284.885,29.705 5294.286,31.165 5303.708,31.382 C5303.756,31.383 5303.803,31.384 5303.850,31.385 C5303.949,31.387 5304.049,31.389 5304.148,31.391 C5304.244,31.393 5304.341,31.395 5304.437,31.396 C5304.500,31.397 5304.563,31.398 5304.626,31.399 C5304.762,31.401 5304.898,31.403 5305.035,31.404 C5305.067,31.404 5305.099,31.405 5305.131,31.405 C5305.483,31.409 5305.837,31.410 5306.191,31.410 C5306.546,31.410 5306.899,31.409 5307.251,31.405 C5307.284,31.405 5307.316,31.404 5307.349,31.404 C5307.484,31.403 5307.620,31.401 5307.755,31.399 C5307.819,31.398 5307.883,31.397 5307.947,31.396 C5308.042,31.394 5308.138,31.393 5308.233,31.391 C5308.334,31.389 5308.434,31.387 5308.535,31.385 C5308.580,31.384 5308.626,31.383 5308.671,31.382 C5318.093,31.165 5327.496,29.705 5337.333,26.939 L5337.334,26.943 C5347.509,24.074 5357.091,20.137 5366.954,16.084 C5386.216,8.169 5406.135,-0.016 5431.659,-0.016 C5457.184,-0.016 5477.102,8.169 5496.364,16.084 C5515.545,23.965 5533.662,31.410 5557.141,31.410 C5580.618,31.410 5598.735,23.966 5617.916,16.084 C5637.178,8.169 5657.097,-0.016 5682.622,-0.016 C5708.146,-0.016 5728.064,8.169 5747.326,16.084 C5766.507,23.965 5784.624,31.410 5808.102,31.410 C5831.581,31.410 5849.698,23.965 5868.879,16.084 C5888.140,8.169 5908.058,-0.016 5933.583,-0.016 C5959.109,-0.016 5979.026,8.169 5998.288,16.084 C6017.469,23.965 6035.586,31.410 6059.065,31.410 C6069.316,31.410 6079.498,29.947 6090.193,26.939 L6093.000,36.131 C6081.381,39.401 6070.280,40.991 6059.065,40.991 Z"/>
</svg>
